bl/trcbank-rect.svg

<svg viewBox="0 0 1024 1024" version="1.1" xmlns="http://www.w3.org/2000/svg" height="1em" width="1em">
  <path d="M224 0h576c123.6 0 224 100.4 224 224v576c0 123.6-100.4 224-224 224H224c-123.6 0-224-100.4-224-224V224C0 100.4 100.4 0 224 0z" fill="#FFFFFF"/>
  <path d="M844 511.6c0 145.6-95.6 269.2-220.4 320.4 88.4-50.8 154.4-152.8 154.4-262 0-131.2-102.8-232.8-235.2-232.8-66 0-117.6 50.8-117.6 116.4s51.6 116.4 117.6 116.4c-14.8 7.2-36.8 14.4-58.8 14.4-102.8 0-183.6-80-183.6-182C300 286 395.6 184 520.4 184c176.4 0 323.6 145.6 323.6 327.6z m-668 0.8C176 366.8 264.4 242.8 396.4 192 308 242.8 242 344.8 242 454c0 131.2 102.8 232.8 235.2 232.8 66 0 117.6-50.8 117.6-116.4s-51.6-116.4-117.6-116.4c14.8-7.2 36.8-14.4 58.8-14.4 102.8 0 183.6 80 183.6 182 0 116.4-95.6 218.4-220.4 218.4-176 0-323.2-145.6-323.2-327.6z" fill="#EA5603"/>
</svg>

<svg viewBox="0 0 1024 1024" xmlns="http://www.w3.org/2000/svg" height="1em" width="1em">
  <path d="M224 0h576c123.6 0 224 100.4 224 224v576c0 123.6-100.4 224-224 224H224C100.4 1024 0 923.6 0 800V224C0 100.4 100.4 0 224 0z" fill="#FFF"/>
  <path d="M844 511.6c0 145.6-95.6 269.2-220.4 320.4C712 781.2 778 679.2 778 570c0-131.2-102.8-232.8-235.2-232.8-66 0-117.6 50.8-117.6 116.4S476.8 570 542.8 570c-14.8 7.2-36.8 14.4-58.8 14.4-102.8 0-183.6-80-183.6-182C300 286 395.6 184 520.4 184 696.8 184 844 329.6 844 511.6zm-668 .8c0-145.6 88.4-269.6 220.4-320.4C308 242.8 242 344.8 242 454c0 131.2 102.8 232.8 235.2 232.8 66 0 117.6-50.8 117.6-116.4S543.2 454 477.2 454c14.8-7.2 36.8-14.4 58.8-14.4 102.8 0 183.6 80 183.6 182C719.6 738 624 840 499.2 840 323.2 840 176 694.4 176 512.4z" fill="#EA5603"/>
</svg>
